src/lib/assets/icons/workshop.svg

<svg width="180" height="180" viewBox="0 0 180 180" fill="none" xmlns="http://www.w3.org/2000/svg">
<path d="M125.754 67.8065H54.056C52.0438 67.8065 50.4141 66.3643 50.4141 64.5863V28.3564C50.4141 26.5772 52.0439 25.1362 54.056 25.1362H125.754C126.719 25.1362 127.645 25.4754 128.329 26.0786C129.012 26.6829 129.396 27.5017 129.396 28.3564V64.5864C129.396 65.44 129.012 66.26 128.329 66.8631C127.645 67.4674 126.719 67.8066 125.754 67.8066V67.8065ZM57.6983 61.3662H122.112V31.5771H57.6983V61.3662Z" fill="#6DD743"/>
<path d="M130.873 77.7754H48.921C46.9101 77.7754 45.2791 76.3332 45.2791 74.5552C45.2791 72.7761 46.9102 71.3351 48.921 71.3351H130.873C132.885 71.3351 134.515 72.7761 134.515 74.5552C134.515 76.3333 132.885 77.7754 130.873 77.7754Z" fill="#6DD743"/>
<path d="M73.5618 95.8904C73.0676 95.8916 72.5773 95.8039 72.1225 95.6332C70.3059 94.9009 69.4929 93.0128 70.3021 91.3978L79.2072 73.2828C80.024 71.6766 82.1493 70.9488 83.9773 71.6485C85.8053 72.3494 86.6577 74.2173 85.8904 75.8437L76.9131 93.9587C76.3313 95.1358 75.014 95.8951 73.5619 95.8906L73.5618 95.8904Z" fill="#6DD743"/>
<path d="M125.754 67.8065H54.056C52.0438 67.8065 50.4141 66.3643 50.4141 64.5863V28.3564C50.4141 26.5772 52.0439 25.1362 54.056 25.1362H125.754C126.719 25.1362 127.645 25.4754 128.329 26.0786C129.012 26.6829 129.396 27.5017 129.396 28.3564V64.5864C129.396 65.44 129.012 66.26 128.329 66.8631C127.645 67.4674 126.719 67.8066 125.754 67.8066V67.8065ZM57.6983 61.3662H122.112V31.5771H57.6983V61.3662Z" fill="#6DD743"/>
<path d="M106.232 95.8904C104.786 95.8881 103.478 95.13 102.9 93.9584L93.9947 75.8435C93.5946 75.0572 93.5679 74.162 93.9198 73.359C94.2729 72.5548 94.9742 71.91 95.8685 71.5675C96.7628 71.2249 97.7752 71.2136 98.6784 71.536C99.5829 71.8584 100.303 72.4874 100.678 73.2826L109.583 91.3975C110.392 93.0127 109.579 94.9009 107.763 95.633C107.28 95.815 106.758 95.9026 106.232 95.8902L106.232 95.8904Z" fill="#6DD743"/>
<path d="M89.8968 95.8904C87.8859 95.8904 86.2549 94.4482 86.2549 92.6702V74.5552C86.2549 72.7761 87.886 71.3351 89.8968 71.3351C91.909 71.3351 93.5388 72.7761 93.5388 74.5552V92.6702C93.5388 93.5238 93.1552 94.3438 92.473 94.9469C91.7896 95.5512 90.8635 95.8904 89.8968 95.8904L89.8968 95.8904Z" fill="#6DD743"/>
<path d="M89.8968 31.5771C87.8859 31.5771 86.2549 30.1349 86.2549 28.3569V19.3072C86.2549 17.528 87.886 16.087 89.8968 16.087C91.909 16.087 93.5388 17.5281 93.5388 19.3072V28.3569C93.5388 30.1349 91.909 31.5771 89.8968 31.5771Z" fill="#6DD743"/>
<path d="M87.5261 161.182C86.5556 161.183 85.6244 160.842 84.941 160.233L15.6269 98.9323C14.2142 97.6754 14.2142 95.6469 15.6269 94.3912L27.1729 84.1666V84.1654C27.8564 83.5612 28.7824 83.2208 29.7492 83.2208C30.7159 83.2208 31.6432 83.5612 32.3267 84.1654L101.657 145.469C102.342 146.072 102.725 146.892 102.725 147.747C102.725 148.601 102.342 149.421 101.657 150.026L90.0931 160.234C89.4135 160.839 88.4899 161.18 87.5245 161.184L87.5261 161.182ZM23.3502 96.5977L87.5261 153.407L93.9183 147.739L29.7424 90.9962L23.3502 96.5977Z" fill="#6DD743"/>
<path d="M106.157 167.447C105.715 167.45 105.277 167.379 104.864 167.238L86.2345 161.007C85.0721 160.622 84.2121 159.742 83.9504 158.671C83.6888 157.598 84.0622 156.483 84.9413 155.709L96.5228 145.469C97.3955 144.698 98.6506 144.371 99.8562 144.598C101.062 144.826 102.055 145.578 102.497 146.595L109.582 163.084H109.58C110.007 164.077 109.852 165.191 109.169 166.062C108.484 166.935 107.357 167.453 106.157 167.447L106.157 167.447ZM94.0825 156.723L99.8741 158.672L97.6701 153.535L94.0825 156.723Z" fill="#6DD743"/>
<path d="M114.443 137.385C112.967 137.386 111.636 136.599 111.073 135.393C110.51 134.185 110.827 132.797 111.876 131.878L131.471 114.536C132.909 113.287 135.221 113.305 136.634 114.576C138.047 115.848 138.027 117.892 136.589 119.141L117.011 136.435C116.331 137.04 115.408 137.382 114.443 137.385L114.443 137.385Z" fill="#6DD743"/>
<path d="M144.912 123.971C139.011 123.916 133.474 121.44 129.927 117.268C126.382 113.097 125.231 107.705 126.812 102.678C128.392 97.6507 132.527 93.5587 138 91.6043C143.472 89.6511 149.661 90.0577 154.747 92.7051C159.833 95.3513 163.239 99.9384 163.963 105.118C164.687 110.297 162.647 115.478 158.443 119.141C154.848 122.29 149.973 124.031 144.912 123.972L144.912 123.971ZM144.912 96.8238C141.793 96.8114 138.799 97.9009 136.592 99.8475C134.384 101.795 133.147 104.442 133.154 107.198C133.16 109.955 134.41 112.596 136.625 114.536C138.824 116.476 141.805 117.567 144.912 117.567C148.019 117.567 150.999 116.476 153.198 114.536C155.415 112.596 156.665 109.955 156.671 107.198C156.677 104.441 155.439 101.795 153.232 99.8475C151.025 97.901 148.03 96.8114 144.912 96.8238Z" fill="#6DD743"/>
<path d="M114.443 137.385C112.967 137.386 111.636 136.599 111.073 135.393C110.51 134.185 110.827 132.797 111.876 131.878L131.471 114.536C132.909 113.287 135.221 113.305 136.634 114.576C138.047 115.848 138.027 117.892 136.589 119.141L117.011 136.435C116.331 137.04 115.408 137.382 114.443 137.385L114.443 137.385Z" fill="#6DD743"/>
</svg>

<svg
  xmlns="http://www.w3.org/2000/svg"
  width="180"
  height="180"
  viewBox="0 0 180 180"
>
  <path
    fill="#6dd743"
    d="M125.754 67.806H54.056c-2.012 0-3.642-1.442-3.642-3.22v-36.23c0-1.779 1.63-3.22 3.642-3.22h71.698c.965 0 1.891.34 2.575.943s1.067 1.423 1.067 2.277v36.23c0 .854-.384 1.674-1.067 2.277s-1.61.944-2.575.944zm-68.056-6.44h64.414V31.577H57.698v29.79zm73.175 16.409H48.921c-2.01 0-3.642-1.442-3.642-3.22s1.631-3.22 3.642-3.22h81.952c2.012 0 3.642 1.441 3.642 3.22s-1.63 3.22-3.642 3.22z"
  />
  <path
    fill="#6dd743"
    d="M73.562 95.89a4.078 4.078 0 0 1-1.44-.257c-1.816-.732-2.63-2.62-1.82-4.235l8.905-18.115c.817-1.606 2.942-2.334 4.77-1.635s2.68 2.57 1.913 4.196l-8.977 18.115c-.582 1.177-1.899 1.936-3.351 1.932zm52.192-28.084H54.056c-2.012 0-3.642-1.442-3.642-3.22v-36.23c0-1.779 1.63-3.22 3.642-3.22h71.698c.965 0 1.891.34 2.575.943s1.067 1.423 1.067 2.277v36.23c0 .854-.384 1.674-1.067 2.277s-1.61.944-2.575.944zm-68.056-6.44h64.414V31.577H57.698v29.79zm48.534 34.524c-1.446-.002-2.754-.76-3.332-1.932l-8.905-18.114a2.88 2.88 0 0 1-.075-2.485c.353-.804 1.054-1.449 1.948-1.791a4.083 4.083 0 0 1 2.81-.032c.905.322 1.625.951 2 1.747l8.905 18.114c.809 1.616-.004 3.504-1.82 4.236a4.078 4.078 0 0 1-1.531.257z"
  />
  <path
    fill="#6dd743"
    d="M89.897 95.89c-2.011 0-3.642-1.442-3.642-3.22V74.555c0-1.779 1.631-3.22 3.642-3.22s3.642 1.441 3.642 3.22V92.67c0 .854-.384 1.674-1.066 2.277s-1.61.943-2.576.943zm0-64.313c-2.011 0-3.642-1.442-3.642-3.22v-9.05c0-1.779 1.631-3.22 3.642-3.22s3.642 1.441 3.642 3.22v9.05c0 1.778-1.63 3.22-3.642 3.22zm-2.371 129.605c-.97.001-1.902-.34-2.585-.949l-69.314-61.3c-1.413-1.258-1.413-3.286 0-4.542l11.546-10.224v-.002c.683-.604 1.61-.944 2.576-.944s1.894.34 2.578.944l69.33 61.304c.685.603 1.068 1.423 1.068 2.278s-.383 1.674-1.068 2.279l-11.564 10.208c-.68.605-1.603.946-2.569.95l.002-.002zM23.35 96.598l64.176 56.809 6.392-5.668-64.176-56.743-6.392 5.602z"
  />
  <path
    fill="#6dd743"
    d="M106.157 167.447a3.923 3.923 0 0 1-1.293-.209l-18.63-6.231c-1.162-.385-2.022-1.265-2.284-2.336s.112-2.188.991-2.962l11.582-10.24c.873-.771 2.128-1.098 3.333-.871s2.199.98 2.641 1.997l7.085 16.489h-.002c.427.993.272 2.107-.411 2.978s-1.812 1.391-3.012 1.385zm-12.075-10.724l5.792 1.949-2.204-5.137-3.588 3.188zm20.361-19.338c-1.476.001-2.807-.786-3.37-1.992s-.246-2.596.803-3.515l19.595-17.342c1.438-1.249 3.75-1.231 5.163.04s1.393 3.316-.045 4.565l-19.578 17.294c-.68.605-1.603.947-2.568.95z"
  />
  <path
    fill="#6dd743"
    d="M144.912 123.971c-5.901-.055-11.438-2.531-14.985-6.703s-4.696-9.563-3.115-14.59 5.715-9.12 11.188-11.074 11.661-1.546 16.747 1.101 8.492 7.233 9.216 12.413-1.316 10.36-5.52 14.023c-3.595 3.149-8.47 4.89-13.531 4.831v-.001zm0-27.147c-3.119-.013-6.113 1.077-8.32 3.023s-3.445 4.595-3.438 7.351 1.256 5.398 3.471 7.338c2.199 1.94 5.18 3.031 8.287 3.031s6.087-1.091 8.286-3.031c2.217-1.94 3.467-4.581 3.473-7.338s-1.232-5.403-3.439-7.35-5.202-3.037-8.32-3.024z"
  />
  <path
    fill="#6dd743"
    d="M114.443 137.385c-1.476.001-2.807-.786-3.37-1.992s-.246-2.596.803-3.515l19.595-17.342c1.438-1.249 3.75-1.231 5.163.04s1.393 3.316-.045 4.565l-19.578 17.294c-.68.605-1.603.947-2.568.95z"
  />
</svg>
